icon-themes/breeze_svg/cmd/lc_bezierclose.svg

<svg viewBox="0 0 24 24" xmlns="http://www.w3.org/2000/svg"><path d="m4 4v4h1v8h-1v4h4v-1h8v-1h-8v-2h-2v-8h2v-2h8v2h2v8h1v-8h1v-4h-4v1h-8v-1zm1 1h2v1 1h-2zm12 0h2v2h-2zm-12 12h2v2h-2z" fill="#4d4d4d"/><path d="m16 16v4h4v-4zm1 1h2v2h-2z" fill="#1d99f3"/></svg>

<svg xmlns="http://www.w3.org/2000/svg" viewBox="0 0 24 24">
 <path 
     style="fill:#4d4d4d" 
     d="M 4 4 L 4 8 L 5 8 L 5 16 L 4 16 L 4 20 L 8 20 L 8 19 L 16 19 L 16 18 L 8 18 L 8 16 L 6 16 L 6 8 L 8 8 L 8 6 L 16 6 L 16 8 L 18 8 L 18 16 L 19 16 L 19 8 L 20 8 L 20 4 L 16 4 L 16 5 L 8 5 L 8 4 L 4 4 z M 5 5 L 7 5 L 7 6 L 7 7 L 5 7 L 5 5 z M 17 5 L 19 5 L 19 7 L 17 7 L 17 5 z M 5 17 L 7 17 L 7 19 L 5 19 L 5 17 z "
     />
 <path 
     style="fill:#1d99f3" 
     d="M 16 16 L 16 20 L 20 20 L 20 16 L 16 16 z M 17 17 L 19 17 L 19 19 L 17 19 L 17 17 z "
     />
 </svg>
